X:1
T:Variation on A Minuet in G Major
T:BWV Anhang 114/Opus 57
T:Theme by Kristian Petzold Variation by Henry Miller
%%score { ( 1 4 ) | ( 2 3 ) }
L:1/8
M:3/4
K:G
V:1 treble nm="Piano"
V:4 treble 
V:2 bass 
V:3 bass 
V:1
"^TEMA" d2 GABc | d2 .G2 .G2 | e2 Mcdef | g2 .G2 .G2 | Mc2 dcBA | B2 cBAG | F2 GABG |{B} A6 | %8
 d2 GABc | d2 .G2 .G2 | e2 Mcdef | g2 .G2 .G2 | Mc2 dcBA | B2 cBAG | A2 BAGF | G6 :: b2 gabg | %17
 a2 defd | g2 efgd | ^c2 Bc A2 | AB^cdef | g2 f2 e2 | f2 A2 ^c2 | d6 | d2 GF G2 | e2 GF G2 | %26
 d2 c2 B2 | AGFG A2 | DEFGAB | c2 PB2 A2 | Bd G2 F2 | G6 :: %32
"^VARIATION" (3d^cd (3G/F/G/(3A/^G/A/ (3B/^A/B/(3=c/B/c/ | (3d^cd (3GFG (3GFG | %34
 (3e^de (3c/B/c/(3=d/^c/d/ (3e/^d/e/(3f/^e/f/ | (3gfg (3GFG (3GFG | %36
 (3cBc (3d/^c/d/(3=c/B/c/ (3B/^A/B/(3=A/^G/A/ | (3B^AB (3c/B/c/(3B/A/B/ (3=A/^G/A/(3=G/F/G/ | %38
 (3F^EF (3G/F/G/(3A/^G/A/ (3B/^A/B/(3=G/F/G/ | A2 ^G2 A2 | %40
 (3d^cd (3G/F/G/(3A/^G/A/ (3B/^A/B/(3=c/B/c/ | (3d^cd (3GFG (3GFG | %42
 (3e^de (3c/B/c/(3=d/^c/d/ (3e/^d/e/(3f/^e/f/ | (3gfg (3GFG (3GFG | %44
 (3cBc (3d/^c/d/(3=c/B/c/ (3B/^A/B/(3=A/^G/A/ | (3B^AB (3c/B/c/(3B/A/B/ (3=A/^G/A/(3=G/F/G/ | %46
 (3A^GA (3B/^A/B/(3=A/G/A/ (3=G/F/G/(3F/^E/F/ | G2 F2 G2 :: %48
 (3b^ab (3g/f/g/(3=a/^g/a/ (3b/^a/b/(3=g/f/g/ | (3a^ga (3d/^c/d/(3e/^d/e/ (3f/^e/f/(3=d/c/d/ | %50
 (3gfg (3e/^d/e/(3f/^e/f/ (3g/f/g/(3=d/^c/d/ | (3^c^Bc (3=B/^A/B/(3c/^B/c/ (3=A^GA | %52
 (3A/^G/A/(3B/^A/B/ (3^c/^B/c/(3d/c/d/ (3e/^d/e/(3f/^e/f/ | (3gfg (3f^ef (3=e^de | %54
 (3f^ef (3A^GA (3^c^Bc | d2 ^c2 d2 | (3d^cd (3G/F/G/(3F/^E/F/ (3GFG | %57
 (3e^de (3G/F/G/(3F/^E/F/ (3GFG | (3d^cd (3=cBc (3B^AB | %59
 (3A/^G/A/(3=G/F/G/ (3F/^E/F/(3G/F/G/ (3A^GA | %60
 (3D/^C/D/(3E/^D/E/ (3F/^E/F/(3G/F/G/ (3A/^G/A/(3B/^A/B/ | (3cBc (3B^AB (3=A^GA | %62
 (3B/^A/B/(3d/^c/d/ (3GFG (3F^EF | G2 F2 G2 :| %64
V:2
 [B,D]4 A,2 | B,6 | C6 | B,6 | A,6 | G,6 | D2 B,2 G,2 | D2 D,CB,A, | B,4 A,2 | G,2 .B,2 .G,2 | C6 | %11
 B,2 CB,A,G, | A,4 F,2 | G,4 B,2 | C2 D2 D,2 | G,4 G,,2 :: G,6 | F,6 | E,2 G,2 E,2 | A,4 A,,2 | %20
 A,6 | B,2 D2 ^C2 | D2 F,2 A,2 | D2 D,2 =C2 | z2 D4 | z2 E4 | B,2 A,2 G,2 | D4 z2 | z2 z2 F,2 | %29
 E,2 G,2 F,2 | G,2 B,,2 D,2 | G,2 D,2 !fermata!G,,2 :: [B,D]4 A,2 | B,6 | C6 | B,6 | A,6 | G,6 | %38
 D2 B,2 G,2 | D2 D,CB,A, | B,4 A,2 | G,2 .B,2 .G,2 | C6 | B,2 CB,A,G, | A,4 F,2 | G,4 B,2 | %46
 C2 D2 D,2 | G,4 G,,2 :: G,6 | F,6 | E,2 G,2 E,2 | A,4 A,,2 | A,6 | B,2 D2 ^C2 | D2 F,2 A,2 | %55
 D2 D,2 =C2 | z2 D4 | z2 E4 | B,2 A,2 G,2 | D4 z2 | z2 z2 F,2 | E,2 G,2 F,2 | G,2 B,,2 D,2 | %63
 G,2 D,2 !fermata!G,,2 :| %64
V:3
 G,4 x2 | x6 | x6 | x6 | x6 | x6 | x6 | x6 | x6 | x6 | x6 | x6 | x6 | x6 | x6 | x6 :: x6 | x6 | %18
 x6 | x6 | x6 | x6 | x6 | x6 | B,4 B,2 | C4 C2 | x6 | x6 | D,6 | x6 | x6 | x6 :: G,4 x2 | x6 | x6 | %35
 x6 | x6 | x6 | x6 | x6 | x6 | x6 | x6 | x6 | x6 | x6 | x6 | x6 :: x6 | x6 | x6 | x6 | x6 | x6 | %54
 x6 | x6 | B,4 B,2 | C4 C2 | x6 | x6 | D,6 | x6 | x6 | x6 :| %64
V:4
 x6 | x6 | x2 x/4 x/4 x/ x3 | x6 | x/4 x/4 x3/2 x4 | x6 | x6 | x6 | x6 | x6 | x2 x/4 x/4 x/ x3 | %11
 x6 | x/4 x/4 x3/2 x4 | x6 | x6 | x6 :: x6 | x6 | x6 | x6 | x6 | x6 | x6 | x6 | x6 | x6 | x6 | x6 | %28
 x6 | x2 (5:4:5x/4 x/4 x/4 x/4 x/4 x x2 | x6 | [B,D]6 :: x6 | x6 | x2 x/4 x15/4 | x6 | x/4 x23/4 | %37
 x6 | x6 | x6 | x6 | x6 | x2 x/4 x15/4 | x6 | x/4 x23/4 | x6 | x6 | x6 :: x6 | x6 | x6 | x6 | x6 | %53
 x6 | x6 | x6 | x6 | x6 | x6 | x6 | x6 | x6 | x6 | [B,D]2 [^A,^C]2 [B,D]2 :| %64

